X:1
T:Comment mes yeux
T:Noé Faignient
T:Source : La fleur des chansons à 3---Louvain---P.Phalèse---1574. Editor : André Vierendeels (29/08/18) Notes : Original clefs : G2, C2, C3 Original note values have been halved Editorial accidentals above the staff  
T:Comment mes yeux
T:©
T:©
T:©
T:©
T:©
C:Noé Faignient
Z:©
%%score [ 1 2 3 ]
L:1/8
Q:1/4=120
M:2/2
K:F
V:1 treble nm="Soprano" snm="S"
V:2 treble nm="Alto" snm="A"
V:3 treble-8 nm="Tenor" snm="T"
V:1
 z8 | d4 d2 c2 | B4 z2 d2 | f2 c2 d2 f2 | f2 e2 d2 G2 | B2 c2 d2 _e2 | d2 z d d2 c2 | A2 G2 A4 | %8
w: |Com- ment, mes|yeux, com-|ment, mes yeux, com-|, mes yeux, a-|vez vous en- tre-|pris, a- vez vous|en- tre- pris|
 B4 B2 A2 | B2 c2 A2 f2 | fd g2 ^f2 z d | d2 c2 B2 G2 | Afef d2 ^cd | ^cd B2 A4 | d4 d4 | c4 B4 | %16
w: à re- gar-|der cho- se tant|ex- cel- len- te tant|ex- cel- len- *|te, tant ex- cel- len- te, tant|ex- cel- len- te,|mon cueur|se plaint,|
 d4 d2 c2 | B2 d2 d2 _e2 | d2 c2 d2 G2 | B2 c2 d2 _e2 | d4 B4 | B2 A2 B2 c2 | AA f3 d g2 | %23
w: mon cueur se|plaint et dit qu'il|fut sur- pris, et|dit qu'il fut sur-|pris quand|il se mist en|pri- son si plai- san-|
 ^f2 z d d2 c2 | B2 G2 dfef | d2 ^cd dcBB | A2 G2 d4 | f2 e2 d2 f2 | e2 d2 dd ^c2 | d2 A2 c2 B2 | %30
w: te, si plai- san-|te, en pri- son si plai-|san- te, en pri- son si plai-|san- te, mais|i'ay es- poir qu'a-|mour qui me tour- men-|te, mais i'ay es-|
 A2 A2 B2 B2 | c2 c2 _e4 | d4 G4 | A2 B2 c4- | c2 c2 B2 A2 | A2 G2 A4 | z4 d4 | d2 c2 Bcde | %38
w: poir qu'a- mour qui|me tour- men-|te, ren-|dra con- tent|_ mon e- sprit|sou- ci- eux,|car|cel- l'en qui gist tou- te|
 fd c2 d4 | z2 d2 ^cdAf | efcc dc =B2 | d6 c2- | c2 B2 c4 | A4 G4 | z2 d4 c2- | c2 B2 c4 | %46
w: mon at- ten- te,|me peut gue- rir, me|peut gue- rir, me peut gue- rir|d'un seul|_ trait de|ses yeux,|d'un seul|_ trait de|
 A4 =B4- | B8 |] %48
w: ses yeux.|_|
V:2
 G4 B2 F2 | G2 B2 B2 A2 | G2 G2 B2 B2 | F2 A2 G2 A2 | A2 G2 F2 B2 | G2 G2 B2 G2 | F2 G2 F2 E2 | %7
w: Com- ment, mes|yeux, com- ment, mes|yeux a- vez vous|en- tre- pris, com-|ment, mes yeux, a-|vez vous en- tre-|pris, a- vez vous|
 FD G4 ^F2 | G4 z2 D2 | G2 G2 FFAB | AB G2 A2 B2 | B2 G2 G2 z G | FFG A2 GAF | FF G2 ^F4 | %14
w: en _ _ tre-|pris, à|re- gar- der cho- se tant|ex- cel- len- te, à|re- gar- der cho-|se tant ex- cel- len- te, tant|ex- cel- len- te,|
 z2 D2 DEFG | A2 G4 F2 | B4 B2 A2 | G2 B2 B2 G2 | F2 G2 F2 B2 | G2 G2 FD G2- | G2 ^F2 G4 | %21
w: mon cueur _ _ _|_ se plaint,|mon cueur se|plaint et dit qu'il|fut sur- pris, et|dit qu'il fut _ _|_ sur- pris|
 z2 D2 G2 G2 | FFAB AB G2 | A2 B2 B2 G2 | G2 z G FFGA- | AGAF GEDG | ^F2 G2 z4 | z2 G2 B2 A2 | %28
w: quand il se|mist en pri- son si plai- san-|te, si plai- san-|te, en pri- son si plai-|* san- te, en pri- son si plai-|san- te,|mais i'ay es-|
 G2 A2 A2 G2 | F2 F2 G4 | F2 z F G2 G2 | G4 G4 |"^-natural" z2 D2 E2 E2 | F2 F2 G2 G2 | %34
w: poir qu'a- mour qui|me tour- men-|te, qui me tour-|men- te,|ren- dra con-|tent, ren- dra con-|
 A3 G F2 E2 | D2 D2 E2 z F | F2 E2 D2 B2 | B2 A2 GFBA | AB G2 F2 B2 | ABFF ED F2 | A2 AG G4 | %41
w: tent mon e- sprit|sou- ci- eux, car|cel- l'en qui gist,|cel- l'en qui gist tou- te|mon at- ten- te, me|peut gue- rir, me peut gue- rir,|me peut gue- rir|
"^b" z2 B2 A4 | G4 A2 G2- | GF/E/ ^F2 G4 | B4 A4 | G4 A2 G2- |"^#" GF/E/ F2 G4- | G8 |] %48
w: d'un seul|trait de ses|_ _ _ _ yeux,|d'un seul|trait de ses|_ _ _ _ yeux.|_|
V:3
 z8 | z2 G2 B2 F2 | G8 | z4 z2 d2 | f2 c2 d2 _e2 | _e2 e2 B2 c2 | d2 G2 B2 c2 | d2 _e2 d4 | %8
w: |Com- ment, mes|yeux,|com-|ment, mes yeux, a-|vez vous en- tre|pris, a- vez vous|en- tre- pris,|
 z2 g2 g2 f2 | _e2 c2 d2 d2 | fg _e2 d2 G2 | B2 c2 G2 _e2 | ddcA B2 AB | AB G2 d4 | G2 GA Bcde | %15
w: à re- gar-|der cho- se tant|ex- cel- len- te, à|re- gar- der cho-|se tant ex- cel- len- te, tant|ex- cel- len- te,|mon cueur _ _ _ _ _|
 f2 _e4 B2 | z2 G2 B2 F2 | G2 G2 B2 c2 | d2 _e2 d2 e2 | _e2 e2 B2 c2 | d4 z2 g2 | g2 f2 _e2 c2 | %22
w: _ se plaint,|mon cueur se|plaint et dit qu'il|fut sur- pris, et|dit qu'il fut sur-|pris quand|il se mist en|
 d2 d2 fg _e2 | d2 G2 B2 c2 | G2 _e2 ddcA | B2 AB GABG | d2 G4 g2 | f2 c2 d4 | z2 d2 f2 e2 | %29
w: pri- son si plai- san-|te, si plai- sant-|te, en pri- son si plai-|san- te, en pri- son si plai-|san- te, mais|i'ay es- poir|mais i'ay es-|
 d2 d2 c2 G2 | d2 f2 _e3 d | c8 | G4 z4 | d4 e2 e2 | f3 e d2 c2 | B2 B2 A2 d2 | B2 c2 G2 z G | %37
w: poir qu'a- mour qui|me tour- men- *||te,|ren- dra con-|tent mon e- sprit|sou- ci- eux, car|cel- l'en qui, car|
 B2 F2 GABc | dB _e2 d2 z g | fg d2 z2 d2 |"^#""^#" cdAc =Bc G2 |"^#" g4 f4 | _e4 c4 | d4 G4 | %44
w: cel- l'en qui gist tou- te|mon at- ten- te, me|peut gue- rir, me|peut gue- rir, me peut gue- rir|d'un seul|trait de|ses yeux,|
 g4 f4 | _e4 c4 | d4 G4- | G8 |] %48
w: d'un seul|trait de|ses yeux.|_|

